X: 31790
T: Patsy Campbell
R: reel
M: 4/4
K: Dmajor
d2 AG FGAB|=c2AB cdec|dcAG FGA2|fage d2de:|
fdd2 fdaf|e=cc2 efge|f2de fgaf|edcA A4|
faaf a4|gbaf g2fg|a2ag fafe|dfde fafe||

